X: 1
T:Independence Hornpipe, The
M:4/4
L:1/8
Q:220
R:hornpipe
K:G
Bc|:dgfa (3gab gd|(3efg dc (3Bcd BG|FGAB cBce|(3agf (3gfe d2Bc|
!dgfa (3gab gd|(3efg dc (3Bcd bg|fedB cAFG|1(3ABA GF G2:|2(3ABA GF G2AB|
!:(3cdc (3BAG (3FAc (3edc|(3Bcd (3Bdg (3bag (3fed|
!(3cdc (3BAG (3FAc (3edc|(3Bcd (3Bdg (3bag (3fed|
!~e3 (3ceg (3c'ba (3gfe|~d3 (3Bdg (3bag (3fed|
!(3ced (3cBA (3fed (3cBA|(3GBd (3gdB G2:|
